X: 071119
T: Goat in the Green
S: "Johnny O'Leary of Sliabh Luachra" (#71)
Z: B.Black
L: 1/8
M: 6/8
R: jig
K: Edor
D|E2E FEE|BEE AFE|D2D DFE|DFA dAF|
E2E FEE|BEE FED|d z B AFA|BEE E/F/ED|
E/F/GE FEE|B z E AFE|D3 DFE|DFA dAF|
E2E FEE|BEE FED|d2B AFA|BEE Ez ||
f|e/f/ge BAB|def gfe|fdd Add|fef afd|
efe BAB|def gfe|d/e/dB AFA|1 BEE E2 :|2\
BEE E/F/ED||
